app/assets/images/heroicons/micro/numbered-list.svg

<svg width="16" height="16" viewBox="0 0 16 16" fill="none" xmlns="http://www.w3.org/2000/svg">
<path d="M2.995 1C2.64982 1 2.37 1.27982 2.37 1.625C2.37 1.97018 2.64982 2.25 2.995 2.25H3.375V4.375C3.375 4.72018 3.65482 5 4 5C4.34518 5 4.625 4.72018 4.625 4.375V1.625C4.625 1.27982 4.34518 1 4 1H2.995Z" fill="black"/>
<path d="M3.20828 7.38498C3.45509 7.29774 3.7213 7.25 4 7.25C4.07934 7.25 4.15763 7.25387 4.23471 7.26141L2.57306 8.92306C2.39475 9.10136 2.34106 9.36935 2.43692 9.60258C2.53277 9.83581 2.75938 9.98859 3.01154 9.98999L4.99857 10.001C5.34374 10.0029 5.62511 9.72463 5.62702 9.37946C5.62893 9.03429 5.35066 8.75292 5.00549 8.75101L4.51559 8.7483L5.292 7.97188C5.50652 7.75737 5.62703 7.46642 5.62703 7.16306C5.62703 6.69819 5.33 6.20571 4.78455 6.08526C4.53135 6.02935 4.26874 6 4 6C3.57743 6 3.17046 6.07256 2.79172 6.20643C2.46627 6.32146 2.2957 6.67854 2.41073 7.00398C2.52575 7.32943 2.88283 7.50001 3.20828 7.38498Z" fill="black"/>
<path d="M2.625 11C2.27982 11 2 11.2798 2 11.625C2 11.9702 2.27982 12.25 2.625 12.25H4.25C4.31904 12.25 4.375 12.306 4.375 12.375C4.375 12.444 4.31904 12.5 4.25 12.5H3.5C3.15482 12.5 2.875 12.7798 2.875 13.125C2.875 13.4702 3.15482 13.75 3.5 13.75H4.25C4.31904 13.75 4.375 13.806 4.375 13.875C4.375 13.944 4.31904 14 4.25 14H2.625C2.27982 14 2 14.2798 2 14.625C2 14.9702 2.27982 15.25 2.625 15.25H4.25C5.00939 15.25 5.625 14.6344 5.625 13.875C5.625 13.5983 5.54327 13.3407 5.40263 13.125C5.54327 12.9093 5.625 12.6517 5.625 12.375C5.625 11.6156 5.00939 11 4.25 11H2.625Z" fill="black"/>
<path d="M7.25 2C6.83579 2 6.5 2.33579 6.5 2.75C6.5 3.16421 6.83579 3.5 7.25 3.5H13.25C13.6642 3.5 14 3.16421 14 2.75C14 2.33579 13.6642 2 13.25 2H7.25Z" fill="black"/>
<path d="M7.25 7.25C6.83579 7.25 6.5 7.58579 6.5 8C6.5 8.41421 6.83579 8.75 7.25 8.75H13.25C13.6642 8.75 14 8.41421 14 8C14 7.58579 13.6642 7.25 13.25 7.25H7.25Z" fill="black"/>
<path d="M6.5 13.25C6.5 12.8358 6.83579 12.5 7.25 12.5H13.25C13.6642 12.5 14 12.8358 14 13.25C14 13.6642 13.6642 14 13.25 14H7.25C6.83579 14 6.5 13.6642 6.5 13.25Z" fill="black"/>
</svg>

<svg xmlns="http://www.w3.org/2000/svg" viewBox="0 0 16 16" fill="currentColor" aria-hidden="true" data-slot="icon">
  <path d="M2.995 1a.625.625 0 1 0 0 1.25h.38v2.125a.625.625 0 1 0 1.25 0v-2.75A.625.625 0 0 0 4 1H2.995ZM3.208 7.385a2.37 2.37 0 0 1 1.027-.124L2.573 8.923a.625.625 0 0 0 .439 1.067l1.987.011a.625.625 0 0 0 .006-1.25l-.49-.003.777-.776c.215-.215.335-.506.335-.809 0-.465-.297-.957-.842-1.078a3.636 3.636 0 0 0-1.993.121.625.625 0 1 0 .416 1.179ZM2.625 11a.625.625 0 1 0 0 1.25H4.25a.125.125 0 0 1 0 .25H3.5a.625.625 0 1 0 0 1.25h.75a.125.125 0 0 1 0 .25H2.625a.625.625 0 1 0 0 1.25H4.25a1.375 1.375 0 0 0 1.153-2.125A1.375 1.375 0 0 0 4.25 11H2.625ZM7.25 2a.75.75 0 0 0 0 1.5h6a.75.75 0 0 0 0-1.5h-6ZM7.25 7.25a.75.75 0 0 0 0 1.5h6a.75.75 0 0 0 0-1.5h-6ZM6.5 13.25a.75.75 0 0 1 .75-.75h6a.75.75 0 0 1 0 1.5h-6a.75.75 0 0 1-.75-.75Z"/>
</svg>
